resources/svg/bag-alt.svg

<svg xmlns="http://www.w3.org/2000/svg" viewBox="0 0 15 15" fill="currentColor"><path fill-rule="evenodd" clip-rule="evenodd" d="M1 1.5C1 0.671573 1.67157 0 2.5 0H12.5C13.3284 0 14 0.671573 14 1.5V13.5C14 14.3284 13.3284 15 12.5 15H2.5C1.67157 15 1 14.3284 1 13.5V1.5ZM10 4.5C10 5.88071 8.88071 7 7.5 7C6.11929 7 5 5.88071 5 4.5V2L4 2L4 4.5C4 6.433 5.567 8 7.5 8C9.433 8 11 6.433 11 4.5V2H10V4.5Z" fill="black"/></svg>

<svg xmlns="http://www.w3.org/2000/svg" viewBox="0 0 15 15" fill="currentColor"><path fill-rule="evenodd" clip-rule="evenodd" d="M1 1.5A1.5 1.5 0 012.5 0h10A1.5 1.5 0 0114 1.5v12a1.5 1.5 0 01-1.5 1.5h-10A1.5 1.5 0 011 13.5v-12zm9 3a2.5 2.5 0 01-5 0V2H4v2.5a3.5 3.5 0 107 0V2h-1v2.5z" fill="currentColor"/></svg>
